svg/set/RAV/C.svg

<?xml version="1.0" encoding="UTF-8" standalone="no"?>
<svg xmlns="http://www.w3.org/2000/svg" version="1.1" width="600" height="946.07379">
  <path d="m 257.21854,462.13339 c 0,-18.37748 14.97162,-33.25449 33.27815,-33.25449 18.37748,0 33.3491,14.87701 33.3491,33.25449 0,18.40114 -14.97162,33.37276 -33.3491,33.37276 -18.30653,0 -33.27815,-14.97162 -33.27815,-33.37276 m 213.78903,-98.01324 0,-45.83728 -69.37086,0 C 395.1561,293.25922 326.06906,31.97729 324.76821,25.96972 323.46641,19.96215 310.71902,0 288.7228,0 l -0.17029,0 c -17.73889,0.0946 -33.27815,13.22138 -37.32261,29.30463 -3.97351,16.15421 -60.8089,242.9754 -72.16178,288.97824 l -47.11448,0 0,49.52697 -131.95364,0 0,578.26395 600,0 0,-581.95364 -128.99716,0 z" style="fill:#ffffff"/>
  <path d="m 290.49669,394.03973 c -37.60643,0 -68.09366,30.51088 -68.09366,68.09366 0,37.70104 30.48723,68.18827 68.09366,68.18827 37.67739,0 68.16462,-30.48723 68.16462,-68.18827 0,-37.58278 -30.48723,-68.09366 -68.16462,-68.09366 m -1.77294,-355.41627 82.52128,319.01608 60.50142,0 0,99.05393 53.12205,0 0,-53.21665 75.78051,0 0,503.2403 -521.357619,0 0,-499.55061 69.749289,0 0,102.649 62.27531,0 0,-152.17597 38.52885,0 78.87891,-319.01608 z"/>
</svg>

<?xml version="1.0" encoding="UTF-8" standalone="no"?>
<svg
   version="1.1"
   width="600"
   height="946.07379"
   id="svg2"
   xmlns="http://www.w3.org/2000/svg"
   xmlns:svg="http://www.w3.org/2000/svg">
  <defs
     id="defs2" />
  <path
     d="m 257.21854,462.13339 c 0,-18.37748 14.97162,-33.25449 33.27815,-33.25449 18.37748,0 33.3491,14.87701 33.3491,33.25449 0,18.40114 -14.97162,33.37276 -33.3491,33.37276 -18.30653,0 -33.27815,-14.97162 -33.27815,-33.37276 M 471.00757,364.12015 V 318.28287 H 401.63671 C 395.1561,293.25922 326.06906,31.97729 324.76821,25.96972 323.46641,19.96215 310.71902,0 288.7228,0 h -0.17029 c -17.73889,0.0946 -33.27815,13.22138 -37.32261,29.30463 -3.97351,16.15421 -60.8089,242.9754 -72.16178,288.97824 h -47.11448 v 49.52697 H 0 V 946.07379 H 600 V 364.12015 H 471.00284 Z"
     style="fill:#ffffff"
     id="path1" />
  <path
     d="m 290.49669,394.03973 c -37.60643,0 -68.09366,30.51088 -68.09366,68.09366 0,37.70104 30.48723,68.18827 68.09366,68.18827 37.67739,0 68.16462,-30.48723 68.16462,-68.18827 0,-37.58278 -30.48723,-68.09366 -68.16462,-68.09366 m -1.77294,-355.41627 82.52128,319.01608 h 60.50142 v 99.05393 h 53.12205 v -53.21665 h 75.78051 v 503.2403 H 39.291391 V 407.16651 h 69.749289 v 102.649 h 62.27531 V 357.63954 h 38.52885 z"
     id="path2" />
</svg>
